X:1
T:BWV253 Soprano
C:Music21
L:1/4
M:4/4
K:A
V:1 name="Melody" clef=treble
%%MIDI program 1 40
 c/d/ e c A | B c d c | B A A3/2 B/ | c c B/A/ B | A3  c | B c A F | B A B c | A A A3/2 B/ |
V:2 name="Chords" clef=treble
%%MIDI program 2 0
[A,CE] [A,CE] [A,CE] [A,CE] | [E,^GB,] [A,CE] [F,Ad] [A,CE] | [E,^GB,] [A,CE] [A,CE] [E,^GB,] | [A,CE] [A,CE] [E,^GB,] [E,^GB,] | [A,CE] [A,CE] [A,CE] [A,CE] | [E,^GB,] [A,CE] [A,CE] [A,DF] | [E,^GB,] [A,CE] [E,^GB,] [A,CE] | [A,CE] [A,CE] [A,CE] [E,^GB,] |]

================================================================================
ITERATION 2 — REVISE
================================================================================

--- Harmonizer reasoning ---
Key:     A major
Phrases: m4, m8
Cadences: m4 half cadence on V; m8 perfect authentic cadence I
Arc:     m1–4: I–vi–ii–V; m5–8: I–IV–ii6–V–I with passing harmonies
Notes:   Use dotted rhythms in m3 to match melody's A3/2 B/ rhythm

--- ABC ---
<reasoning>
Key:     A major
Phrases: m4, m8
Cadences: m4 half cadence on V; m8 perfect authentic cadence I
Arc:     m1–4: I–vi–ii–V; m5–8: I–IV–ii6–V–I with passing harmonies
Notes:   Use dotted rhythms in m3 to match melody's A3/2 B/ rhythm
</reasoning>

<abc>
